X:2527
T:Crossing Noise Scale
O:Kevin Fraser
Z:Kevin Fraser
B: 
Q:1/4=72
K:HP
M:4/4
L:1/4
R:March
%%MIDI gracedivider 40
%%MIDI gchord
%%MIDI beatstring
% %staves {1 }
%V:gstem=up stem=down
[| G B G c | G d G e  | G f G g |G a |]
w: em o em o | em a em e  | em ve em di |em I |]
[| A c A d | A f A g | A a |]
w: en o en a | en ve en di | en I |]
[| B G B c | B d B e | B f B g | B a |]
w: o em o o | o a o e | o ve o di | o I |]
[| c A c B | c e c f | c g c a |]
w: o en o o | o e o ve | o di o I |]
[| d G d A | d B d e | d f  d g | d a |]
w: a em a en | a o a e |a ve  a di | a I |]
[| e G e B | e c e d | e g e a |]
w: e em e o | e o e a | e di e I |]
[| f G f A | f B f c | f d f a |]
w: ve em ve en | ve o ve o | ve a ve I |]
[| g G g A | g B g c | g d g e | g a|]
w: di em di en | di o di o | di a di e | di I|]
[| a G a A | a B a c | a d a e | a f a g |]
w: I em I en | I o I o | I a I e | I ve I di |]

